src/Pure/16/symbolic/actions/twitter-mentions-symbolic.svg

<?xml version="1.0" encoding="UTF-8" standalone="no"?>
<svg
   width="16"
   height="16"
   version="1.1"
   id="svg2"
   sodipodi:docname="twitter-mentions-symbolic.svg"
   inkscape:version="1.4.2 (ebf0e940d0, 2025-05-08)"
   xmlns:inkscape="http://www.inkscape.org/namespaces/inkscape"
   xmlns:sodipodi="http://sodipodi.sourceforge.net/DTD/sodipodi-0.dtd"
   xmlns="http://www.w3.org/2000/svg"
   xmlns:svg="http://www.w3.org/2000/svg">
  <defs
     id="defs2">
     <style
        id="current-color-scheme"
        type="text/css">
        .ColorScheme-Text { color:#363636; }
     </style>
  </defs>
  <sodipodi:namedview
     id="namedview2"
     pagecolor="#ffffff"
     bordercolor="#000000"
     borderopacity="0.25"
     inkscape:showpageshadow="2"
     inkscape:pageopacity="0.0"
     inkscape:pagecheckerboard="0"
     inkscape:deskcolor="#d1d1d1"
     inkscape:zoom="49.6875"
     inkscape:cx="8"
     inkscape:cy="8"
     inkscape:window-width="1920"
     inkscape:window-height="1010"
     inkscape:window-x="0"
     inkscape:window-y="0"
     inkscape:window-maximized="1"
     inkscape:current-layer="svg2" />
  <path
     id="path1"
     style="fill:currentColor"
     class="ColorScheme-Text"
     d="M 10.412109 0.95898438 C 9.8725594 0.95568568 9.3635188 1.2175731 8.9492188 1.5957031 C 6.9993188 1.6502761 5.2407719 2.8502906 4.5761719 4.7128906 A 1.0001 1.0001 0 0 0 4.5742188 4.71875 C 4.3412287 5.38334 3.9689944 6.1864625 3.6152344 6.7890625 C 3.4383544 7.0903825 3.263635 7.3433512 3.140625 7.4882812 C 3.093568 7.5437212 3.0608948 7.5706339 3.0546875 7.578125 L 3.0566406 7.578125 L 3.0585938 7.578125 C 3.0680865 7.5753414 3.0905694 7.5672941 3.1269531 7.5566406 A 1.0001 1.0001 0 0 0 2.9042969 7.6542969 C 2.6058469 7.8330769 2.3736106 8.1048244 2.2441406 8.4277344 A 1.0001 1.0001 0 0 0 2.2324219 8.4589844 C 1.9390019 9.2658844 2.3719694 10.146294 3.1621094 10.433594 A 1.0001 1.0001 0 0 0 3.1660156 10.435547 L 11.037109 13.253906 C 11.832689 13.543206 12.706941 13.101971 12.994141 12.337891 C 13.142241 11.952691 13.116151 11.539054 12.974609 11.208984 A 1.0001 1.0001 0 0 0 12.929688 11.117188 L 12.931641 11.117188 L 12.931641 11.115234 L 12.931641 11.113281 C 12.93086 11.100955 12.92479 11.062122 12.923828 10.994141 C 12.921128 10.803371 12.947513 10.496101 13.001953 10.150391 C 13.110823 9.4589806 13.331946 8.5993531 13.572266 7.9394531 A 1.0001 1.0001 0 0 0 13.572266 7.9375 C 14.243706 6.0788 13.570396 4.1495719 12.195312 2.8886719 C 12.131355 2.1044419 11.755596 1.353 10.972656 1.0625 A 1.0001 1.0001 0 0 0 10.958984 1.0566406 C 10.774504 0.99131762 10.591969 0.96008338 10.412109 0.95898438 z M 10.232422 1.9394531 C 10.362862 1.9352564 10.49531 1.954079 10.625 2 C 11.15004 2.19477 11.421324 2.7360512 11.302734 3.2695312 C 12.623734 4.2264612 13.217112 5.9802563 12.632812 7.5976562 C 12.099303 9.0626562 11.709431 11.188516 12.056641 11.603516 C 12.107481 11.722076 12.115263 11.857345 12.064453 11.984375 C 11.962833 12.263835 11.658366 12.416073 11.378906 12.314453 L 3.5039062 9.4941406 C 3.2244463 9.3925206 3.0722081 9.0802413 3.1738281 8.8007812 C 3.2220331 8.6805513 3.3068488 8.5782787 3.4179688 8.5117188 C 3.9599488 8.4100987 5.0029312 6.5223281 5.5195312 5.0488281 C 6.0832013 3.4691281 7.6206219 2.4512812 9.2949219 2.5507812 C 9.4727419 2.1783212 9.8411119 1.9520431 10.232422 1.9394531 z M 6.7402344 12.720703 C 6.4402344 13.550703 7.01 14.509141 8 14.869141 C 9 15.219141 10.039844 14.839766 10.339844 14.009766 L 6.7402344 12.720703 z " />
</svg>

<svg width="16" height="16" version="1.1" xmlns="http://www.w3.org/2000/svg">
 <path d="m6.74 12.72c-0.3 0.83 0.27 1.79 1.26 2.15 1 0.35 2.04-0.03 2.34-0.86z" fill="#363636"/>
 <path d="m10.412 0.95898c-0.53955-0.0032987-1.0486 0.25859-1.4629 0.63672-1.9499 0.054573-3.7084 1.2546-4.373 3.1172a1.0001 1.0001 0 0 0-0.0019531 0.0058594c-0.23299 0.66459-0.60522 1.4677-0.95898 2.0703-0.17688 0.30132-0.3516 0.55429-0.47461 0.69922-0.094114 0.11088-0.1301 0.10245-0.013672 0.068359a1.0001 1.0001 0 0 0-0.22266 0.097656c-0.29845 0.17878-0.53069 0.45053-0.66016 0.77344a1.0001 1.0001 0 0 0-0.011719 0.03125c-0.29342 0.8069 0.13955 1.6873 0.92969 1.9746a1.0001 1.0001 0 0 0 0.0039062 0.001953l7.8711 2.8184c0.79558 0.2893 1.6698-0.15194 1.957-0.91602 0.1481-0.3852 0.12201-0.79883-0.019532-1.1289a1.0001 1.0001 0 0 0-0.070312-0.13476c0.047233 0.074418 0.021455 0.055884 0.019531-0.080078-0.0027-0.19077 0.023685-0.49804 0.078125-0.84375 0.10887-0.69141 0.32999-1.551 0.57031-2.2109a1.0001 1.0001 0 0 0 0-0.0019531c0.67144-1.8587-0.001917-3.7879-1.377-5.0488-0.063957-0.78423-0.43976-1.5357-1.2227-1.8262a1.0001 1.0001 0 0 0-0.013672-0.0058594c-0.18448-0.065323-0.36702-0.096557-0.54688-0.097656zm-0.17969 0.98047c0.13044-0.0041967 0.26289 0.014626 0.39258 0.060547 0.52504 0.19477 0.79632 0.73602 0.67773 1.2695 1.321 0.95693 1.9144 2.7107 1.3301 4.3281-0.53351 1.465-0.92338 3.5909-0.57617 4.0059 0.05084 0.11856 0.058622 0.25383 0.007812 0.38086-0.10162 0.27946-0.40609 0.4317-0.68555 0.33008l-7.875-2.8203c-0.27946-0.10162-0.4317-0.4139-0.33008-0.69336 0.048205-0.12023 0.13302-0.2225 0.24414-0.28906 0.54198-0.10162 1.585-1.9894 2.1016-3.4629 0.56367-1.5797 2.1011-2.5975 3.7754-2.498 0.17782-0.37246 0.54619-0.59874 0.9375-0.61133z" color="#000000" color-rendering="auto" dominant-baseline="auto" fill="#363636" image-rendering="auto" shape-rendering="auto" solid-color="#000000" stop-color="#000000" style="font-feature-settings:normal;font-variant-alternates:normal;font-variant-caps:normal;font-variant-east-asian:normal;font-variant-ligatures:normal;font-variant-numeric:normal;font-variant-position:normal;font-variation-settings:normal;inline-size:0;isolation:auto;mix-blend-mode:normal;shape-margin:0;shape-padding:0;text-decoration-color:#000000;text-decoration-line:none;text-decoration-style:solid;text-indent:0;text-orientation:mixed;text-transform:none;white-space:normal"/>
</svg>
